X: 228
T: Tie-Hacker No. 1
B: canberra pickers and fiddlers
B: tunes
M:4/4
L:1/8
R: reel
Q: 1/4=100
K:C
V:1 
G2-|"C"G""cAG c2c2|+slide+[e4e4][e2e2]G2-|GcAG c2 e2|"G"dcAG cdcA|
"C"GcAG c2c2|+slide+[e4e4][e2e2]eg-|"G"agef gede|"C"c3d c2:|
a2-|:"C"agef g2ag|"F"ea2b a2g2|"C"agef gedg|"G"ec2d c2eg|
"C"agef g2ag|"F"ea2b a2g2|"G"agef gedg|"C"ec2d c2:|]
% abcbook-tune_id 63ae8f1c0e3826ff9b4a2e4d
% abcbook-tune_composer_id 
% abcbook-link-0 https://www.youtube.com/watch?v=KTeEu6gOuJM
% abcbook-boost 0
% abcbook-difficulty 0
% abcbook-tags canberra pickers and fiddlers,old time tunes,© free
% abcbook-tablature 
% abcbook-transpose 
% abcbook-tuning GDAE
% abcbook-lastupdated 1732672330496
% abcbook-src-url https://tunebook.net/scrape/tunes.abc
% abcbook-soundfonts 
% abcbook-repeats 1


